X: 4138
T: Blue Bonnets Over The Border
R: jig
M: 6/8
K: Gminor
|:B,3 B,>CD|d2c B>GF|B<GG G>gg|g>fd d>cd|
B,3 B,>CD|d2c B>GF|G3 D2F|1 G<BD C3:|2 C3- C2D||
|:B>df f>dB|g>fd c>dc|B>df g>ab|B>cd c3|
B>df f>dB|g>fd d>cd|B>AG F<DF|G<BD C2B,:|

